X: 1
T: Frenchies
M: 4/4
L: 1/8
R: reel
K: Dmaj
|: AG |FAde f2AG | FAde f2ed | cAeA gAeA | cAeA g2AG |
FAde f2AG | FAde f2ed | cAeA gAeA | dcde d2 :|
|: AG | F2dF AdFA | dFAd- dFAd | G2dG BdGB | dGBd- dGBd |
A2eA ceAc | gAcf- fAeA |dcdf &quot;A7&quot;edce | dcde d2 :|
